X:102
T: Der goldene Rosenkranz
N: D0148
O: Europa, Mitteleuropa, Deutschland, Wolga - Kolonie
N: Inzipit = entfernte Varianta zum Lied ??
R: geistliches Lied, Marien - Lied
M: 3/4
L: 1/8
K: Eb
E2 | G2B2G2 | F2E2F2 | E6- | E2z2
FG | A2B2A2 | G2A2B2 | F6- | F2z2
F2 | B2c2B2 | E4FG | A2B2G2 | F4
Ac | B2A2G2 | F2G2F2 | E6- | E2z2

